logo.svg

<svg version="1.1" id="Layer_1" xmlns="http://www.w3.org/2000/svg" xmlns:xlink="http://www.w3.org/1999/xlink" x="0px" y="0px"
	 width="100%" viewBox="0 0 1024 1024" enable-background="new 0 0 1024 1024" xml:space="preserve">
<path fill="#ce9b00" opacity="1.000000" stroke="none" 
	d="
M576.169983,321.187012 
	C582.403442,315.318390 589.480408,311.189972 596.247437,306.684509 
	C605.098267,300.791779 613.816895,304.548004 621.605713,308.977081 
	C629.165710,313.276031 629.610718,321.640808 629.544373,329.355652 
	C629.483704,336.415131 627.381287,343.123810 623.708252,349.257446 
	C621.997131,352.114868 619.942017,354.855133 618.758667,357.924469 
	C613.367004,371.908508 604.937622,383.627441 593.610901,393.404114 
	C591.424683,395.291168 589.456665,397.690887 588.625854,400.940063 
	C590.834656,402.470337 592.786865,401.368774 594.675720,400.514099 
	C600.167175,398.029205 605.046692,394.511780 610.068604,391.239166 
	C620.093750,384.706055 630.887756,381.059143 643.050232,381.636871 
	C653.616455,382.138763 662.396545,387.149780 669.939209,393.498444 
	C679.396912,401.458862 677.509766,418.716461 666.369873,425.646698 
	C658.767517,430.376190 650.609924,434.694855 641.078247,435.525665 
	C630.380005,436.458130 620.651550,433.609619 611.046082,429.686157 
	C605.367615,427.366730 599.637329,425.334015 593.012756,424.064514 
	C593.656494,427.762238 596.114075,429.295380 598.111267,431.062469 
	C602.849060,435.254456 607.747803,439.264709 612.479797,443.463043 
	C620.501526,450.580109 624.928894,459.802582 627.599609,469.978333 
	C629.813843,478.415253 626.301270,488.708588 619.954102,492.713806 
	C611.286743,498.183167 602.703613,497.535706 594.731812,490.798889 
	C592.236572,488.690186 589.760742,486.558441 586.140808,483.468109 
	C582.095642,504.696777 582.957520,525.220032 579.023560,545.680664 
	C581.809387,545.181885 582.753601,543.332886 584.033203,542.033752 
	C595.405273,530.488220 608.066101,520.953613 623.880005,516.293945 
	C630.163025,514.442627 636.474121,513.524780 643.074951,514.622009 
	C656.356567,516.829773 662.035706,529.057983 654.847961,540.440613 
	C650.979858,546.566223 645.374817,550.693481 638.846619,553.541321 
	C630.211304,557.308472 621.169617,559.246460 611.698547,559.375122 
	C604.721191,559.469849 597.718506,559.755737 590.864563,561.272705 
	C583.531738,562.895691 577.810242,566.721130 573.915649,573.364380 
	C571.294067,577.836060 569.034546,582.450867 566.896484,587.151428 
	C560.089661,602.115540 551.379456,615.514160 536.517761,623.808044 
	C534.206787,625.097778 532.931824,627.092407 532.091248,629.589478 
	C529.038208,638.658813 524.611816,647.013184 518.723999,654.584839 
	C516.376770,657.603271 513.732605,659.783508 509.861206,657.346130 
	C506.506195,655.233704 506.275116,651.201660 509.262512,647.386169 
	C513.090027,642.497559 516.102478,637.170471 518.687744,631.543335 
	C520.621033,627.335205 520.117004,624.647949 515.536743,622.347351 
	C503.124908,616.112671 495.742767,605.933716 493.412415,592.149658 
	C492.115051,584.475586 495.490662,575.578918 501.073700,572.330872 
	C508.080536,568.254517 516.557373,569.293518 523.172058,575.403442 
	C531.209595,582.827576 534.278381,592.545349 535.314941,603.105286 
	C535.486755,604.855286 534.774536,606.808594 536.544373,608.450623 
	C540.298584,607.399597 542.281494,604.185181 544.467773,601.393433 
	C553.985596,589.240173 559.573792,575.209534 563.468628,560.442871 
	C568.672485,540.713684 569.998474,520.440308 571.759705,500.225800 
	C572.828003,487.964691 574.058960,475.716217 575.366516,463.478027 
	C576.289917,454.835358 575.309265,446.458221 572.985657,437.343170 
	C570.429138,440.128937 570.138611,442.850250 569.420166,445.317444 
	C567.140015,453.146637 565.227478,461.102875 561.101196,468.253601 
	C556.310791,476.555267 549.446167,481.958466 540.068726,484.665680 
	C528.799927,487.918854 513.401917,473.962982 516.323303,461.100677 
	C519.173035,448.554169 526.699768,439.720612 536.796448,432.657593 
	C540.741638,429.897797 545.110291,427.748627 549.236877,425.240417 
	C551.047302,424.139984 552.948059,423.026031 553.810547,419.778839 
	C548.027100,418.410980 542.475586,419.010345 537.038696,419.684662 
	C531.544495,420.366119 526.066528,420.551392 520.588257,420.182922 
	C503.822052,419.055176 491.711548,404.606903 488.394623,390.323334 
	C485.967621,379.872162 497.769043,363.859467 507.538574,360.404846 
	C524.194824,354.515045 536.603027,360.703064 548.067810,371.866089 
	C552.273193,375.960785 555.777893,380.593872 559.360229,385.193024 
	C561.066040,387.383087 562.528748,389.886261 565.928833,391.302216 
	C567.415100,387.131866 566.909851,383.112396 566.126953,379.164856 
	C563.814880,367.505249 562.253174,355.796051 564.688904,343.995026 
	C566.432190,335.548859 570.146790,327.949463 576.169983,321.187012 
M610.982849,535.474609 
	C606.063232,538.896362 601.092407,542.260925 596.463257,547.470947 
	C607.650940,548.086914 617.527588,547.369812 627.259094,545.117371 
	C633.008301,543.786682 638.215576,541.232544 642.410095,536.975464 
	C644.397217,534.958740 646.545837,532.659119 645.350403,529.568542 
	C644.138977,526.436401 641.063904,526.262573 638.174500,526.289795 
	C628.380676,526.382141 619.780640,530.111023 610.982849,535.474609 
M506.250793,584.190125 
	C502.969666,594.572449 511.654724,609.600464 521.867004,611.211365 
	C525.251953,602.868591 520.943787,588.221924 513.686035,583.496277 
	C511.340698,581.969177 508.944092,580.817383 506.250793,584.190125 
z"/>
<path fill="#ce9b00" opacity="1.000000" stroke="none" 
	d="
M415.947510,375.113770 
	C431.366760,341.078522 457.068695,320.399963 493.399780,313.355347 
	C508.167877,310.491821 522.882202,311.655701 537.309143,316.020386 
	C541.190186,317.194550 544.131409,319.140228 543.027222,323.835602 
	C542.190796,327.392029 538.810547,328.736877 534.086365,327.418945 
	C482.939850,313.150116 433.311005,346.222870 421.864227,396.250183 
	C419.538116,406.416351 419.007019,416.702240 418.486725,426.966949 
	C417.721222,442.068604 412.112030,455.027771 403.178375,466.871857 
	C394.582642,478.267914 383.774963,487.453949 373.314240,496.991394 
	C372.575836,497.664673 371.779633,498.275269 371.051086,498.958527 
	C365.682251,503.993683 366.158600,507.314178 372.858063,510.627899 
	C376.438568,512.398926 380.193237,513.818237 383.771606,515.593201 
	C395.968292,521.642944 398.838928,531.418030 391.988251,543.261780 
	C385.933685,553.729126 385.960052,553.800415 397.071899,559.291382 
	C398.412598,559.953857 399.849487,560.524719 401.006897,561.436279 
	C404.990387,564.573486 404.597229,570.124451 400.275574,572.756348 
	C399.570801,573.185547 398.759064,573.437805 398.000916,573.781067 
	C389.995789,577.405579 389.912567,577.921936 395.694733,584.118835 
	C401.032654,589.839600 402.138672,596.728455 400.734009,604.140259 
	C399.835602,608.880737 398.471375,613.536316 397.654907,618.288208 
	C395.904816,628.474548 401.362244,635.783752 411.491699,637.839111 
	C421.337860,639.836914 431.109222,637.972534 440.886139,637.675720 
	C458.290558,637.147278 475.099701,638.929871 490.936890,646.824890 
	C502.617432,652.647766 512.323669,660.841187 520.882812,670.554810 
	C523.498962,673.523865 526.251831,676.372375 529.315186,679.678772 
	C533.247070,674.898682 537.095032,670.772461 541.896179,667.731018 
	C551.876038,661.408936 562.496399,658.223022 574.196899,661.989807 
	C583.147949,664.871460 588.986816,670.787354 590.359985,680.424805 
	C591.698486,689.817749 587.948364,697.137817 580.458923,702.401672 
	C568.689514,710.673584 556.072998,710.031006 543.329590,704.886414 
	C540.122986,703.591919 537.127991,701.773254 533.862854,700.107239 
	C531.916992,702.365295 531.683289,705.093689 531.411865,707.631531 
	C529.119324,729.063904 535.803589,747.321655 551.119141,762.450073 
	C551.711853,763.035522 552.314697,763.610596 552.908936,764.194519 
	C555.664001,766.901001 556.475159,769.974792 553.765259,773.023865 
	C550.875671,776.275146 547.775940,774.993164 544.954285,772.667603 
	C540.028564,768.607971 535.828247,763.825317 532.372681,758.516846 
	C520.380981,740.094849 515.656982,720.258240 521.357300,698.542358 
	C522.616394,693.745605 521.924011,689.560059 518.500427,685.561523 
	C503.996735,668.622314 487.740234,654.488220 464.722626,650.859680 
	C456.997467,649.641907 449.253143,649.082397 441.356934,649.734863 
	C430.916138,650.597656 420.334869,651.425598 409.961151,649.554565 
	C391.463623,646.218323 382.552521,632.619202 386.164429,614.108826 
	C387.055573,609.541931 388.195618,605.017151 388.913696,600.424866 
	C389.512146,596.597778 388.245972,593.264587 385.444122,590.441711 
	C376.304657,581.233582 376.238190,576.960205 384.934570,567.307800 
	C384.672089,565.559875 382.995361,565.183105 381.869598,564.314819 
	C374.109192,558.329590 372.730652,550.661804 377.982452,542.368469 
	C378.071594,542.227722 378.157684,542.083313 378.262024,541.954285 
	C387.583191,530.426025 382.992371,527.390442 372.429901,523.404907 
	C368.042694,521.749451 363.851227,519.740662 360.307861,516.579834 
	C353.549988,510.551422 352.736755,501.519318 358.766541,494.755615 
	C362.523102,490.541870 366.772705,486.751404 370.943970,482.926880 
	C379.544769,475.041107 388.131470,467.173004 395.078766,457.690460 
	C402.724976,447.254089 406.679321,435.563995 406.630310,422.718536 
	C406.567719,406.316193 409.787140,390.644165 415.947510,375.113770 
M547.815735,678.271912 
	C545.537231,680.440247 543.225525,682.574951 540.989746,684.786499 
	C538.816467,686.936157 539.189270,688.939148 541.674927,690.498352 
	C550.313599,695.917358 559.438660,698.799500 569.533325,695.040710 
	C576.013306,692.627930 579.554504,687.275696 578.655334,681.819580 
	C577.804504,676.656311 572.822449,672.760620 566.159058,672.357483 
	C559.594055,671.960266 553.810791,674.362549 547.815735,678.271912 
z"/>
<path fill="#ce9b00" opacity="1.000000" stroke="none" 
	d="
M722.229614,426.591064 
	C721.720947,428.401123 721.189026,429.833588 721.061584,431.301147 
	C720.381226,439.139496 722.325073,441.266724 730.664612,442.019012 
	C728.981323,446.419159 723.553467,448.285919 716.396667,446.926025 
	C707.269653,445.191772 700.148499,435.936035 700.379333,426.107483 
	C700.627869,415.525696 708.207214,407.344513 718.966125,406.044861 
	C727.003357,405.073944 734.951050,409.769409 737.260681,417.322754 
	C730.880371,417.883087 725.325378,420.024078 722.229614,426.591064 
z"/>
<path fill="#ce9b00" opacity="1.000000" stroke="none" 
	d="
M717.274841,490.795197 
	C715.387085,489.017975 714.165283,487.226868 713.856750,485.026947 
	C713.219421,480.483337 714.557007,476.766083 718.956726,474.757416 
	C723.085388,472.872467 726.835144,473.813507 729.718811,477.189819 
	C732.700195,480.680420 733.317383,484.680359 730.585449,488.618713 
	C727.943970,492.426666 724.290527,493.848572 719.756409,492.205780 
	C718.989014,491.927734 718.299622,491.434357 717.274841,490.795197 
z"/>
</svg>

<svg xmlns="http://www.w3.org/2000/svg" viewBox="330 285 430 540" xml:space="preserve">
<path fill="#c49a2c" d="M576.17 321.187c6.233-5.869 13.31-9.997 20.077-14.502 8.851-5.893 17.57-2.137 25.359 2.292 7.56 4.299 8.005 12.664 7.938 20.379-.06 7.06-2.163 13.768-5.836 19.901-1.71 2.858-3.766 5.598-4.95 8.667-5.391 13.985-13.82 25.703-25.147 35.48-2.186 1.887-4.154 4.287-4.985 7.536 2.209 1.53 4.16.429 6.05-.426 5.491-2.485 10.37-6.002 15.393-9.275 10.025-6.533 20.819-10.18 32.981-9.602 10.566.502 19.347 5.513 26.89 11.861 9.457 7.96 7.57 25.218-3.57 32.149-7.602 4.73-15.76 9.048-25.292 9.879-10.698.932-20.426-1.916-30.032-5.84-5.678-2.32-11.409-4.352-18.033-5.621.643 3.697 3.101 5.23 5.098 6.997 4.738 4.192 9.637 8.203 14.369 12.401 8.022 7.117 12.449 16.34 15.12 26.515 2.214 8.437-1.299 18.73-7.646 22.736-8.667 5.47-17.25 4.822-25.222-1.915-2.495-2.109-4.971-4.24-8.591-7.33-4.045 21.228-3.183 41.751-7.117 62.212 2.785-.5 3.73-2.348 5.01-3.647 11.371-11.546 24.032-21.08 39.846-25.74 6.283-1.851 12.594-2.77 19.195-1.672 13.282 2.208 18.96 14.436 11.773 25.819-3.868 6.125-9.473 10.252-16.001 13.1-8.636 3.767-17.677 5.705-27.148 5.834-6.978.095-13.98.38-20.834 1.898-7.333 1.623-13.055 5.448-16.95 12.091-2.62 4.472-4.88 9.087-7.019 13.787-6.806 14.965-15.517 28.363-30.378 36.657-2.311 1.29-3.586 3.284-4.427 5.781-3.053 9.07-7.48 17.424-13.367 24.996-2.347 3.018-4.991 5.199-8.863 2.761-3.355-2.112-3.586-6.144-.598-9.96 3.827-4.888 6.84-10.216 9.425-15.843 1.933-4.208 1.429-6.895-3.151-9.196-12.412-6.234-19.794-16.413-22.125-30.197-1.297-7.674 2.079-16.571 7.662-19.82 7.007-4.075 15.483-3.036 22.098 3.073 8.038 7.425 11.106 17.142 12.143 27.702.172 1.75-.54 3.704 1.23 5.346 3.754-1.051 5.736-4.266 7.923-7.058 9.518-12.153 15.106-26.183 19-40.95 5.204-19.73 6.53-40.003 8.292-60.217 1.068-12.261 2.299-24.51 3.607-36.748.923-8.643-.058-17.02-2.381-26.135-2.557 2.786-2.847 5.507-3.566 7.974-2.28 7.83-4.193 15.786-8.319 22.937-4.79 8.301-11.655 13.704-21.032 16.412-11.27 3.253-26.667-10.703-23.746-23.565 2.85-12.547 10.377-21.38 20.473-28.443 3.946-2.76 8.314-4.91 12.44-7.418 1.811-1.1 3.712-2.214 4.575-5.461-5.784-1.368-11.335-.769-16.772-.094-5.495.681-10.972.866-16.45.498-16.767-1.128-28.877-15.576-32.194-29.86-2.427-10.45 9.374-26.464 19.144-29.918 16.656-5.89 29.064.298 40.529 11.461 4.205 4.095 7.71 8.728 11.292 13.327 1.706 2.19 3.169 4.693 6.569 6.11 1.486-4.171.98-8.19.198-12.138-2.312-11.66-3.874-23.369-1.438-35.17 1.743-8.446 5.458-16.046 11.481-22.808m34.813 214.288c-4.92 3.421-9.89 6.786-14.52 11.996 11.188.616 21.065-.101 30.796-2.354 5.75-1.33 10.957-3.884 15.151-8.142 1.987-2.016 4.136-4.316 2.94-7.406-1.211-3.133-4.286-3.306-7.176-3.28-9.793.093-18.393 3.822-27.191 9.186M506.25 584.19c-3.281 10.382 5.404 25.41 15.616 27.021 3.385-8.342-.923-22.99-8.181-27.715-2.345-1.527-4.742-2.679-7.435.694"/><path fill="#ce9b00" d="M415.948 375.114c15.419-34.035 41.12-54.714 77.452-61.759 14.768-2.863 29.482-1.7 43.91 2.665 3.88 1.175 6.821 3.12 5.717 7.816-.836 3.556-4.216 4.9-8.94 3.583-51.147-14.269-100.776 18.804-112.223 68.831-2.326 10.166-2.857 20.452-3.377 30.717-.766 15.102-6.375 28.06-15.309 39.905-8.595 11.396-19.403 20.582-29.864 30.12-.738.673-1.534 1.283-2.263 1.967-5.369 5.035-4.892 8.355 1.807 11.669 3.58 1.77 7.335 3.19 10.914 4.965 12.196 6.05 15.067 15.825 8.216 27.669-6.054 10.467-6.028 10.538 5.084 16.03 1.34.662 2.777 1.233 3.935 2.144 3.983 3.137 3.59 8.688-.731 11.32-.705.43-1.517.682-2.275 1.025-8.005 3.625-8.088 4.14-2.306 10.338 5.338 5.72 6.444 12.61 5.039 20.021-.898 4.74-2.263 9.396-3.08 14.148-1.75 10.187 3.708 17.496 13.838 19.551 9.846 1.998 19.617.134 29.394-.163 17.405-.529 34.214 1.254 50.05 9.149 11.681 5.823 21.388 14.016 29.947 23.73 2.616 2.969 5.369 5.817 8.432 9.124 3.932-4.78 7.78-8.907 12.581-11.948 9.98-6.322 20.6-9.508 32.3-5.741 8.952 2.881 14.79 8.797 16.164 18.435 1.338 9.393-2.412 16.713-9.901 21.977-11.77 8.272-24.386 7.629-37.13 2.484-3.206-1.294-6.201-3.113-9.466-4.779-1.946 2.258-2.18 4.987-2.451 7.525-2.293 21.432 4.392 39.69 19.707 54.818.593.586 1.196 1.16 1.79 1.745 2.755 2.706 3.566 5.78.856 8.829-2.89 3.251-5.99 1.97-8.81-.356-4.926-4.06-9.127-8.843-12.582-14.151-11.992-18.422-16.716-38.259-11.016-59.975 1.26-4.796.567-8.982-2.857-12.98-14.503-16.94-30.76-31.074-53.777-34.702-7.726-1.218-15.47-1.778-23.366-1.125-10.44.863-21.022 1.69-31.396-.18-18.497-3.337-27.408-16.936-23.797-35.446.892-4.567 2.032-9.092 2.75-13.684.598-3.827-.668-7.16-3.47-9.983-9.14-9.208-9.206-13.482-.51-23.134-.262-1.748-1.939-2.125-3.064-2.993-7.76-5.985-9.14-13.653-3.888-21.947.09-.14.176-.285.28-.414 9.321-11.528 4.73-14.564-5.832-18.55-4.387-1.655-8.579-3.663-12.122-6.824-6.758-6.029-7.571-15.06-1.541-21.824 3.756-4.214 8.006-8.005 12.177-11.83 8.6-7.885 17.187-15.753 24.135-25.236 7.646-10.436 11.6-22.126 11.551-34.971-.062-16.403 3.157-32.075 9.318-47.605m131.868 303.158c-2.279 2.168-4.59 4.303-6.826 6.514-2.174 2.15-1.8 4.153.685 5.712 8.639 5.42 17.764 8.301 27.858 4.543 6.48-2.413 10.022-7.765 9.122-13.221-.85-5.164-5.833-9.06-12.496-9.463-6.565-.397-12.348 2.006-18.343 5.915M722.23 426.591c-.51 1.81-1.041 3.243-1.168 4.71-.68 7.838 1.263 9.966 9.603 10.718-1.684 4.4-7.112 6.267-14.268 4.907-9.127-1.734-16.249-10.99-16.018-20.819.249-10.581 7.828-18.762 18.587-20.062 8.037-.971 15.985 3.724 18.295 11.278-6.38.56-11.936 2.701-15.031 9.268m-4.955 64.204c-1.888-1.777-3.11-3.568-3.418-5.768-.638-4.544.7-8.26 5.1-10.27 4.128-1.885 7.878-.943 10.762 2.433 2.981 3.49 3.598 7.49.866 11.429-2.641 3.808-6.294 5.23-10.829 3.587-.767-.278-1.456-.772-2.481-1.41"/></svg>
